X: 32314
T: Pigeon On The Gate, The
R: reel
M: 4/4
K: Aminor
Bd|:eAAG AgeA|Aedg edBA|G~B3 d~G3|GABd gbag|
eAAG AgeA|Aedg edBA|GABd g2ga|bagb a3g:|
|:eaag a3g|ea~a2 bgag|ed^cd (3B^cd ef|
[1 geaf gedg|eaag a3g|ea~a2 bgag|ed (3B^cd gbaf|gedB A3d:|
[2 geaf gedB|cBce a3g|ea~a2 bgag|ed (3B^cd gbaf|gedB A3d||


